docs/.vuepress/public/svg/digitalocean.svg

<?xml version="1.0" encoding="UTF-8" standalone="no"?>
<!DOCTYPE svg PUBLIC "-//W3C//DTD SVG 1.1//EN" "http://www.w3.org/Graphics/SVG/1.1/DTD/svg11.dtd">
<svg width="100%" height="100%" viewBox="0 0 2500 422" version="1.1" xmlns="http://www.w3.org/2000/svg"
    xmlns:xlink="http://www.w3.org/1999/xlink" xml:space="preserve" xmlns:serif="http://www.serif.com/"
    style="fill-rule:evenodd;clip-rule:evenodd;stroke-linejoin:round;stroke-miterlimit:2;">
    <rect x="0" y="0" width="2500" height="421.828" style="fill:#fff;" />
    <g>
        <path
            d="M209.98,421.828l0,-82.036c86.976,0 154.067,-85.753 120.534,-176.497c-12.345,-34.077 -39.226,-60.958 -73.303,-73.303c-14.582,-5.483 -30.033,-8.292 -45.611,-8.292c-70.803,0 -129.171,58.025 -129.589,128.826l-82.011,-0c-0,-136.727 132.959,-244.86 278.318,-200.1c63.346,19.898 113.074,69.634 132.959,132.984c44.736,145.434 -63.373,278.418 -201.297,278.418Z"
            style="fill:#0080ff;fill-rule:nonzero;" />
        <path
            d="M211.228,339.792l-82.011,0l-0,-80.788l82.011,-0m-82.011,144.187l-62.126,-0l-0,-63.399l62.126,0l-0,63.399m-62.126,-63.399l-52.121,0l0,-52.195l52.121,-0m682.16,-165.32c-23.602,-16.167 -54.665,-24.95 -89.471,-24.95l-75.773,0l-0,242.366l75.798,-0c34.797,-0 64.621,-8.7 89.471,-26.098c13.572,-9.874 24.291,-23.167 31.063,-38.523c7.485,-16.168 11.178,-36.053 11.178,-57.186c-0,-21.133 -3.718,-41.018 -11.178,-55.938c-7.485,-18.538 -17.415,-30.963 -31.088,-39.671Zm-120.508,16.168l23.602,0c26.098,0 48.453,4.99 65.844,16.168c18.637,11.177 27.445,32.435 27.445,63.398c-0,30.963 -9.98,53.443 -27.445,65.868c-16.143,9.98 -37.276,16.168 -64.621,16.168l-24.825,-0l-0,-161.602m216.192,-44.735c-6.976,-0.187 -13.728,2.525 -18.638,7.485c-5.74,4.435 -8.988,11.388 -8.707,18.637c-0,14.317 11.781,26.098 26.098,26.098c14.316,0 26.097,-11.781 26.097,-26.098c0.184,-6.976 -2.527,-13.726 -7.485,-18.637c-3.717,-4.99 -9.98,-7.485 -17.465,-7.485m-22.455,74.575l43.488,0l0,170.285l-43.313,-0l-0,-170.285m198.802,14.97c-12.475,-11.177 -27.445,-18.637 -43.488,-18.637c-22.143,-0.488 -43.451,8.614 -58.408,24.95c-15.514,16.433 -23.991,38.307 -23.603,60.903c0,23.628 7.485,44.736 22.455,60.903c14.97,16.168 34.781,23.628 58.409,23.628c15.201,0.238 30.061,-4.572 42.24,-13.673l0,3.718c0,13.673 -3.717,24.95 -11.178,32.435c-7.46,7.485 -17.465,11.178 -31.062,11.178c-19.961,-0 -32.311,-7.485 -47.206,-28.593l-29.94,28.593l1.247,1.247c6.213,8.708 16.143,17.465 28.568,26.098c12.425,8.633 28.568,12.475 47.206,12.475c26.098,0 45.983,-7.485 60.878,-23.628c14.895,-16.142 23.603,-36.053 23.603,-62.15l-0,-154.417l-42.191,0l0,14.97l2.495,0m-11.177,100.674c-7.485,8.708 -17.465,12.475 -29.941,12.475c-12.475,0 -22.455,-3.717 -29.94,-12.475c-7.485,-8.757 -11.177,-19.96 -11.177,-33.558c-0,-13.598 3.967,-24.925 11.452,-33.632c7.485,-8.708 17.465,-12.476 29.94,-12.476c12.475,0 22.455,3.718 29.94,12.476c7.485,8.757 11.178,19.96 11.178,33.557c-0,13.598 -3.718,24.951 -11.178,33.558m90.694,-115.594l43.488,0l-0,170.285l-43.763,-0l0,-170.26m21.133,-74.575c-0.211,-0.006 -0.421,-0.008 -0.632,-0.008c-13.974,-0 -25.474,11.499 -25.474,25.474c0,0.21 0.003,0.421 0.008,0.631c0,14.317 11.781,26.098 26.098,26.098c14.317,0 26.098,-11.781 26.098,-26.098c0.005,-0.21 0.008,-0.421 0.008,-0.632c-0,-13.974 -11.5,-25.474 -25.474,-25.474c-0.219,0 -0.438,0.003 -0.657,0.009m115.519,28.567l-42.191,0l0,46.008l-24.95,0l0,38.523l24.95,0l0,70.859c0,22.455 4.99,38.523 13.673,47.23c8.683,8.708 24.95,13.673 45.983,13.673c7.067,0.205 14.139,-0.213 21.133,-1.248l2.495,0l-0,-38.548l-14.97,1.248c-9.98,-0 -17.465,-1.248 -19.96,-4.99c-3.718,-3.718 -4.99,-11.178 -4.99,-22.455l-0,-64.521l39.77,-0l0,-38.548l-39.646,-0l-1.297,-47.231m241.043,-24.95l43.488,0l-0,242.366l-43.438,-0l-0,-242.216m477.145,181.462c-6.353,7.349 -13.433,14.036 -21.132,19.96c-6.768,4.103 -14.541,6.254 -22.455,6.213c-11.776,-0.103 -22.993,-5.105 -30.938,-13.798c-8.708,-9.98 -12.476,-21.132 -12.476,-36.053c0,-14.92 3.718,-26.097 12.476,-36.052c7.644,-9.153 19.15,-14.218 31.062,-13.673c13.673,-0 28.568,8.708 40.993,23.628l28.568,-27.445c-18.637,-23.628 -42.24,-34.806 -70.833,-34.806c-23.603,0 -43.488,8.708 -60.878,26.098c-16.268,17.059 -25.229,39.827 -24.95,63.398c-0,24.95 8.707,47.231 24.95,63.398c15.624,16.989 37.8,26.496 60.878,26.098c31.063,0 55.913,-13.672 73.303,-38.523l-28.568,-28.593m175.2,-85.753c-6.539,-8.613 -15.112,-15.472 -24.95,-19.96c-11.277,-5.223 -23.604,-7.784 -36.028,-7.485c-23.603,-0 -43.488,8.707 -58.408,26.098c-14.118,18.072 -21.583,40.469 -21.133,63.398c0,26.098 7.485,47.23 23.603,63.398c16.118,16.168 36.028,24.95 62.126,24.95c28.568,0 52.195,-11.178 70.833,-34.805l1.247,-1.248l-28.567,-27.445c-2.495,3.718 -6.213,6.213 -9.98,9.98c-3.527,3.716 -7.771,6.679 -12.475,8.708c-6.464,3.54 -13.768,5.265 -21.133,4.99c-10.82,0.156 -21.379,-3.363 -29.94,-9.98c-7.485,-6.213 -11.178,-14.97 -12.475,-26.098l114.321,-0l-0,-16.168c0.279,-11.022 -1.411,-22.006 -4.99,-32.435c-1.817,-9.636 -6.118,-18.632 -12.475,-26.098m-92.765,40.07c1.902,-7.522 5.758,-14.409 11.178,-19.96c5.933,-5.915 14.085,-9.076 22.455,-8.707c9.98,-0 18.638,2.495 23.603,8.707c4.99,4.99 7.485,12.475 8.708,19.96l-65.944,0m258.459,-50.973c-12.476,-11.178 -31.063,-16.168 -53.419,-16.168c-13.671,0.388 -27.147,3.351 -39.72,8.733c-11.178,6.213 -22.455,14.97 -28.568,27.445l27.445,26.098c11.178,-18.638 23.603,-24.95 40.993,-24.95c8.129,-0.216 16.081,2.435 22.455,7.485c5.74,4.436 8.989,11.389 8.708,18.638l-0,8.707c-10.006,-3.376 -20.504,-5.062 -31.063,-4.99c-21.125,0 -38.523,4.99 -52.196,14.97c-13.672,9.98 -19.96,24.95 -19.96,42.266c0,16.167 4.99,28.592 16.143,38.523c11.153,9.93 24.95,13.672 40.993,13.672c16.043,0 31.063,-6.212 45.983,-17.465l-0,13.673l42.24,-0l0,-109.381c0,-19.96 -6.212,-36.053 -19.96,-47.231m-75.798,91.966c4.99,-3.717 11.178,-4.99 19.96,-4.99c11.028,0.372 21.931,2.468 32.31,6.213l0,16.167c-10.28,9.047 -23.583,13.926 -37.275,13.673c-7.485,0 -13.673,-1.247 -17.465,-4.99c-3.792,-3.743 -6.213,-7.485 -6.213,-12.475c0.888,-5.563 4.042,-10.516 8.708,-13.673m260.828,-89.421c-12.475,-13.673 -28.568,-19.96 -49.7,-19.96c-17.399,0 -31.063,4.99 -40.993,14.97l-0,-9.98l-42.266,0l0,170.285l43.488,-0l0,-94.412c0,-12.475 2.495,-23.627 8.708,-31.063c6.158,-7.349 15.366,-11.474 24.95,-11.177c8.637,-0.421 16.98,3.287 22.455,9.98c5.835,7.943 8.896,17.591 8.708,27.445l-0,99.426l43.288,0l0,-99.576c-1.248,-23.619 -7.46,-42.265 -18.638,-55.938m-1056.16,-2.495c-12.475,-11.178 -31.063,-16.168 -53.419,-16.168c-13.686,0.374 -27.18,3.328 -39.77,8.708c-11.178,6.213 -22.455,14.97 -28.568,27.445l27.445,26.098c11.178,-18.638 23.603,-24.95 40.993,-24.95c8.13,-0.216 16.081,2.435 22.455,7.485c5.74,4.436 8.989,11.389 8.708,18.638l-0,8.707c-10.006,-3.376 -20.504,-5.062 -31.063,-4.99c-21.124,0 -38.523,4.99 -52.196,14.97c-13.672,9.98 -19.96,24.95 -19.96,42.266c0,16.167 4.99,28.593 16.143,38.523c11.153,9.93 24.95,13.672 40.993,13.672c16.043,0 31.063,-6.212 45.983,-17.465l0,13.673l42.241,-0l-0,-109.356c-0,-19.96 -7.485,-36.053 -19.96,-47.231m-77.046,91.966c4.99,-3.717 11.177,-4.99 19.96,-4.99c11.028,0.372 21.93,2.468 32.31,6.213l0,16.167c-10.281,9.047 -23.584,13.926 -37.275,13.673c-7.485,0 -13.673,-1.247 -17.465,-4.99c-3.793,-3.743 -6.213,-7.485 -6.213,-12.475c1.857,-5.145 4.831,-9.814 8.708,-13.673m329.341,69.611c-0.017,0 -0.033,0 -0.05,0c-68.19,0 -124.301,-56.112 -124.301,-124.301c-0,-68.19 56.111,-124.302 124.301,-124.302c68.19,0 124.301,56.112 124.301,124.302c-0.244,68.078 -56.173,124.029 -124.251,124.301m-0,-206.312c-0.042,-0 -0.083,-0 -0.125,-0c-44.319,-0 -80.788,36.469 -80.788,80.788c-0,44.319 36.469,80.788 80.788,80.788c44.3,0 80.761,-36.438 80.789,-80.738c-0,-0.058 -0,-0.116 -0,-0.175c-0,-44.223 -36.391,-80.614 -80.614,-80.614c-0.05,0 -0.1,0.001 -0.15,0.001"
            style="fill:#0080ff;fill-rule:nonzero;" />
    </g>
</svg>

<?xml version="1.0" encoding="UTF-8" standalone="no"?>
<!DOCTYPE svg PUBLIC "-//W3C//DTD SVG 1.1//EN" "http://www.w3.org/Graphics/SVG/1.1/DTD/svg11.dtd">
<svg width="100%" height="100%" viewBox="0 0 2500 422" version="1.1" xmlns="http://www.w3.org/2000/svg"
    xmlns:xlink="http://www.w3.org/1999/xlink" xml:space="preserve" xmlns:serif="http://www.serif.com/"
    style="fill-rule:evenodd;clip-rule:evenodd;stroke-linejoin:round;stroke-miterlimit:2;">
    <g transform="matrix(1,0,0,1.03311,0,-0.00558942)">
        <path
            d="M2500,102.247L2500,306.402C2500,362.74 2452.75,408.48 2394.54,408.48L105.458,408.48C47.254,408.48 0,362.74 0,306.402L0,102.247C0,45.908 47.254,0.169 105.458,0.169L2394.54,0.169C2452.75,0.169 2500,45.908 2500,102.247Z"
            style="fill:rgb(235,235,235);" />
    </g>
    <g>
        <path
            d="M209.98,421.828L209.98,339.792C296.956,339.792 364.047,254.039 330.514,163.295C318.169,129.218 291.288,102.337 257.211,89.992C242.629,84.509 227.178,81.7 211.6,81.7C140.797,81.7 82.429,139.725 82.011,210.526L0,210.526C0,73.799 132.959,-34.334 278.318,10.426C341.664,30.324 391.392,80.06 411.277,143.41C456.013,288.844 347.904,421.828 209.98,421.828Z"
            style="fill:rgb(0,128,255);fill-rule:nonzero;" />
        <path
            d="M211.228,339.792L129.217,339.792L129.217,259.004L211.228,259.004M129.217,403.191L67.091,403.191L67.091,339.792L129.217,339.792L129.217,403.191M67.091,339.792L14.97,339.792L14.97,287.597L67.091,287.597M749.251,122.277C725.649,106.11 694.586,97.327 659.78,97.327L584.007,97.327L584.007,339.693L659.805,339.693C694.602,339.693 724.426,330.993 749.276,313.595C762.848,303.721 773.567,290.428 780.339,275.072C787.824,258.904 791.517,239.019 791.517,217.886C791.517,196.753 787.799,176.868 780.339,161.948C772.854,143.41 762.924,130.985 749.251,122.277ZM628.743,138.445L652.345,138.445C678.443,138.445 700.798,143.435 718.189,154.613C736.826,165.79 745.634,187.048 745.634,218.011C745.634,248.974 735.654,271.454 718.189,283.879C702.046,293.859 680.913,300.047 653.568,300.047L628.743,300.047L628.743,138.445M844.935,93.71C837.959,93.523 831.207,96.235 826.297,101.195C820.557,105.63 817.309,112.583 817.59,119.832C817.59,134.149 829.371,145.93 843.688,145.93C858.004,145.93 869.785,134.149 869.785,119.832C869.969,112.856 867.258,106.106 862.3,101.195C858.583,96.205 852.32,93.71 844.835,93.71M822.38,168.285L865.868,168.285L865.868,338.57L822.555,338.57L822.555,168.285M1021.36,183.255C1008.88,172.078 993.912,164.618 977.869,164.618C955.726,164.13 934.418,173.232 919.461,189.568C903.947,206.001 895.47,227.875 895.858,250.471C895.858,274.099 903.343,295.207 918.313,311.374C933.283,327.542 953.094,335.002 976.722,335.002C991.923,335.24 1006.78,330.43 1018.96,321.329L1018.96,325.047C1018.96,338.72 1015.25,349.997 1007.78,357.482C1000.32,364.967 990.319,368.66 976.722,368.66C956.761,368.66 944.411,361.175 929.516,340.067L899.576,368.66L900.823,369.907C907.036,378.615 916.966,387.372 929.391,396.005C941.816,404.638 957.959,408.48 976.597,408.48C1002.7,408.48 1022.58,400.995 1037.47,384.852C1052.37,368.71 1061.08,348.799 1061.08,322.702L1061.08,168.285L1018.89,168.285L1018.89,183.255L1021.38,183.255M1010.21,283.929C1002.72,292.637 992.74,296.404 980.264,296.404C967.789,296.404 957.809,292.687 950.324,283.929C942.839,275.172 939.147,263.969 939.147,250.371C939.147,236.773 943.114,225.446 950.599,216.739C958.084,208.031 968.064,204.263 980.539,204.263C993.014,204.263 1002.99,207.981 1010.48,216.739C1017.96,225.496 1021.66,236.699 1021.66,250.296C1021.66,263.894 1017.94,275.247 1010.48,283.854M1101.17,168.26L1144.66,168.26L1144.66,338.545L1100.9,338.545L1100.9,168.285M1122.03,93.71C1121.82,93.704 1121.61,93.702 1121.4,93.702C1107.42,93.702 1095.92,105.201 1095.92,119.176C1095.92,119.386 1095.93,119.597 1095.93,119.807C1095.93,134.124 1107.71,145.905 1122.03,145.905C1136.35,145.905 1148.13,134.124 1148.13,119.807C1148.13,119.597 1148.14,119.386 1148.14,119.175C1148.14,105.201 1136.64,93.701 1122.66,93.701C1122.44,93.701 1122.23,93.704 1122.01,93.71M1237.53,122.277L1195.33,122.277L1195.33,168.285L1170.38,168.285L1170.38,206.808L1195.33,206.808L1195.33,277.667C1195.33,300.122 1200.32,316.19 1209.01,324.897C1217.69,333.605 1233.96,338.57 1254.99,338.57C1262.06,338.775 1269.13,338.357 1276.12,337.322L1278.62,337.322L1278.62,298.774L1263.65,300.022C1253.67,300.022 1246.18,298.774 1243.69,295.032C1239.97,291.314 1238.7,283.854 1238.7,272.577L1238.7,208.056L1278.47,208.056L1278.47,169.508L1238.82,169.508L1237.53,122.277M1478.57,97.327L1522.06,97.327L1522.06,339.693L1478.62,339.693L1478.62,97.477M1955.76,278.939C1949.41,286.288 1942.33,292.975 1934.63,298.899C1927.86,303.002 1920.09,305.153 1912.18,305.112C1900.4,305.009 1889.18,300.007 1881.24,291.314C1872.53,281.334 1868.76,270.182 1868.76,255.261C1868.76,240.341 1872.48,229.164 1881.24,219.209C1888.88,210.056 1900.39,204.991 1912.3,205.536C1925.97,205.536 1940.87,214.244 1953.29,229.164L1981.86,201.719C1963.22,178.091 1939.62,166.913 1911.03,166.913C1887.42,166.913 1867.54,175.621 1850.15,193.011C1833.88,210.07 1824.92,232.838 1825.2,256.409C1825.2,281.359 1833.91,303.64 1850.15,319.807C1865.77,336.796 1887.95,346.303 1911.03,345.905C1942.09,345.905 1966.94,332.233 1984.33,307.382L1955.76,278.789M2130.96,193.036C2124.42,184.423 2115.85,177.564 2106.01,173.076C2094.74,167.853 2082.41,165.292 2069.99,165.591C2046.38,165.591 2026.5,174.298 2011.58,191.689C1997.46,209.761 1989.99,232.158 1990.44,255.087C1990.44,281.185 1997.93,302.317 2014.05,318.485C2030.16,334.653 2050.07,343.435 2076.17,343.435C2104.74,343.435 2128.37,332.257 2147.01,308.63L2148.25,307.382L2119.69,279.937C2117.19,283.655 2113.47,286.15 2109.71,289.917C2106.18,293.633 2101.93,296.596 2097.23,298.625C2090.77,302.165 2083.46,303.89 2076.1,303.615C2065.28,303.771 2054.72,300.252 2046.16,293.635C2038.67,287.422 2034.98,278.665 2033.68,267.537L2148,267.537L2148,251.369C2148.28,240.347 2146.59,229.363 2143.01,218.934C2141.2,209.298 2136.9,200.302 2130.54,192.836M2037.77,232.906C2039.68,225.384 2043.53,218.497 2048.95,212.946C2054.89,207.031 2063.04,203.87 2071.41,204.239C2081.39,204.239 2090.05,206.734 2095.01,212.946C2100,217.936 2102.49,225.421 2103.72,232.906L2037.77,232.906M2296.23,181.933C2283.76,170.755 2265.17,165.765 2242.81,165.765C2229.14,166.153 2215.67,169.116 2203.09,174.498C2191.92,180.711 2180.64,189.468 2174.53,201.943L2201.97,228.041C2213.15,209.403 2225.57,203.091 2242.96,203.091C2251.09,202.875 2259.05,205.526 2265.42,210.576C2271.16,215.012 2274.41,221.965 2274.13,229.214L2274.13,237.921C2264.12,234.545 2253.62,232.859 2243.06,232.931C2221.94,232.931 2204.54,237.921 2190.87,247.901C2177.2,257.881 2170.91,272.851 2170.91,290.167C2170.91,306.334 2175.9,318.759 2187.05,328.69C2198.2,338.62 2212,342.362 2228.04,342.362C2244.09,342.362 2259.11,336.15 2274.03,324.897L2274.03,338.57L2316.27,338.57L2316.27,229.189C2316.27,209.229 2310.05,193.136 2296.31,181.958M2220.51,273.924C2225.5,270.207 2231.69,268.934 2240.47,268.934C2251.5,269.306 2262.4,271.402 2272.78,275.147L2272.78,291.314C2262.5,300.361 2249.2,305.24 2235.5,304.987C2228.02,304.987 2221.83,303.74 2218.04,299.997C2214.25,296.254 2211.83,292.512 2211.83,287.522C2212.71,281.959 2215.87,277.006 2220.53,273.849M2481.36,184.428C2468.89,170.755 2452.79,164.468 2431.66,164.468C2414.26,164.468 2400.6,169.458 2390.67,179.438L2390.67,169.458L2348.4,169.458L2348.4,339.743L2391.89,339.743L2391.89,245.331C2391.89,232.856 2394.39,221.704 2400.6,214.268C2406.76,206.919 2415.97,202.794 2425.55,203.091C2434.19,202.67 2442.53,206.378 2448,213.071C2453.84,221.014 2456.9,230.662 2456.71,240.516L2456.71,339.942L2500,339.942L2500,240.366C2498.75,216.747 2492.54,198.101 2481.36,184.428M1425.2,181.933C1412.73,170.755 1394.14,165.765 1371.78,165.765C1358.1,166.139 1344.6,169.093 1332.01,174.473C1320.84,180.686 1309.56,189.443 1303.44,201.918L1330.89,228.016C1342.07,209.378 1354.49,203.066 1371.88,203.066C1380.01,202.85 1387.96,205.501 1394.34,210.551C1400.08,214.987 1403.33,221.94 1403.05,229.189L1403.05,237.896C1393.04,234.52 1382.54,232.834 1371.98,232.906C1350.86,232.906 1333.46,237.896 1319.79,247.876C1306.12,257.856 1299.83,272.826 1299.83,290.142C1299.83,306.309 1304.82,318.735 1315.97,328.665C1327.12,338.595 1340.92,342.337 1356.96,342.337C1373.01,342.337 1388.03,336.125 1402.95,324.872L1402.95,338.545L1445.19,338.545L1445.19,229.189C1445.19,209.229 1437.7,193.136 1425.23,181.958M1348.18,273.924C1353.17,270.207 1359.36,268.934 1368.14,268.934C1379.17,269.306 1390.07,271.402 1400.45,275.147L1400.45,291.314C1390.17,300.361 1376.87,305.24 1363.18,304.987C1355.69,304.987 1349.5,303.74 1345.71,299.997C1341.92,296.254 1339.5,292.512 1339.5,287.522C1341.36,282.377 1344.33,277.708 1348.21,273.849M1677.55,343.46L1677.5,343.46C1609.31,343.46 1553.2,287.348 1553.2,219.159C1553.2,150.969 1609.31,94.857 1677.5,94.857C1745.69,94.857 1801.8,150.969 1801.8,219.159C1801.55,287.237 1745.62,343.188 1677.55,343.46M1677.55,137.148L1677.42,137.148C1633.1,137.148 1596.63,173.617 1596.63,217.936C1596.63,262.255 1633.1,298.724 1677.42,298.724C1721.72,298.724 1758.18,262.286 1758.21,217.986L1758.21,217.811C1758.21,173.588 1721.82,137.197 1677.6,137.197C1677.55,137.197 1677.5,137.198 1677.45,137.198"
            style="fill:rgb(0,128,255);fill-rule:nonzero;" />
    </g>
</svg>
